X: 6
T: Jackie Coleman's
R: reel
M: 4/4
L: 1/8
K: Dmaj
|:B|"D"AF F/F/F "Em"EF"D"DE|"D"F2 AF BFAF|"Em"E2 BE dEBE|"D"ABde "Bm"{g}fedB|
"D"AF F/F/F "Em"EF"D"DE|"D"F2 AF BFAF|"Em"E2 BE dEBE|"D"ABde d2 d:|
|:g|"D"fd{e}dc d2 dg|"D"fd{e}dc dfaf|"A"eA A/A/A eAfA|"A"eA A/A/A "Em"edeg|
"D"fd{e}dc d2 dg|"D"fd{e}dc dfaf|"G"g2 gf gbag|"D"fd"A"ec "D"d2 d:|


Tune 50	Setting 12481

